X:1
T:Mazurka : Pomm
E:12
Z:Roger Ngaret (94-95)
R:mazurka
C:Trad.
A:Bretagne
M:3/4
L:1/16
K:C
Q:3/4=130
G2 A2B2 | "C"c4 c2B2 c2d2 | e4 e2d2 e2f2 | e2d2 c2B2 A2B2 |1\
(3A2"G"B2A2 G2 :|2 "C"c6 |: G2 A2G2 | "G"B4 B2G2 A2G2 |\
B4 B2G2 A2G2 | f2g2 d2c2 B2A2 |1 (3A2B2A2 G2 :|2 "C"c6 |]
